X:68
T:Off To California
S:The Session: https://thesession.org/tunes/30#setting30
S:https://JamBuddy.live 2025
C:Traditional
R:hornpipe
K:G
M:4/4
L:1/8
Q:138
|: GFGB AGED| GBdg e2df| gfgd edBG| ABAG E2DE|
! G2GB AGED| GBdg e2df| gfgd edBG| ABAF G4:| ! |:
gfeg fedf| edef edBd| gfgd edBG| ABAG EDEF|
! GFGB AGED| GBdg e2df| gfgd edBG| ABAF G4:|

